X:1
T:The Barefoot Boy
M:2/4
L:1/8
K:C
 G3/2 E/2| CC EG| c c2 c/2c/2| dc cE| F3 E| DE FG| B B2 A/2A/2| AG GG|\
 E3 E/2E/2| CC E G/2G/2| c c2 c| dc cc| A3 A| DE FG| BB B G/2G/2| AG FD|\
 C2||
